X: 223
T: Preludium No. 18	 Op. 28
C: Fryderyk Chopin
%%abc-version 2.0
%%abcx-abcm2ps-target-version 5.9.1 (29 Sep 2008)
%%abc-creator hum2abc beta
%%abcx-conversion-date 2021/10/03 11:23:50
%%abc-edited-by Leszek Kubiak
%%abc-edited-by Emilia Ziętek
%%abc-edited-by Marta Lawrence
%%abcx-initial-encoding-date 2019-05-02
%%humdrum-veritas 4037903121
%%humdrum-veritas-data 3677730874
%%linebreak <none>
%%barnumbers 0
L: 1/16
M: C
N: Derived from 028_13-24-1a-C-018.krn
P: 24 PRELUDES POUR le Piano.
Q: "All.o molto." 1/4=108
%%staves {1 2}
V: 1 clef=treble
V: 2 clef=bass
K: Ab
[V:1] CD=A,B, G,B,GFF6=E2 | 
[V:2] x8z2 [B,2G,2][B,2G,2] z2 & z8z2 [D,2C,,2][D,2C,,2] z2 | 
[V:1] CD=A,B, G,B,GFF6=E2 | 
[V:2] x8z2 [B,2G,2][B,2G,2] z2 & z8z2 [D,2C,,2][D,2C,,2] x2 | 
[V:1] CD=A,B, G,B,GF ^D=EB_A ^FGdc | 
[V:2] z8z2 B,_A, ^F,G,DC | 
[V:1] =ABd'g c'bag f=egB (5:4:5=BcdGc | 
[V:2] =A,B,[K:clef=treble]dG cB_AG F=EGB,[K:clef=bass] (5:4:5=B,CDG,C | 
[V:1] B=AF_G =DEcBB6=A2 & x8z2 [E2C2][E2C2] z2 | 
[V:2] B,=A, z2z4z2 [_G,2F,,2][G,2F,,2] z2 | 
[V:1] F_G=DE CEcBB6=A2 & x8z2 [E2C2][E2C2] z2 | 
[V:2] z8z2 [_G,2F,,2][G,2F,,2] z2 | 
[V:1] F_G=DE CEcB ^G=A_gf =de_d'c' | 
[V:2] z4z2 CB, ^G,=A,[K:clef=treble]_GF =DE_dc | 
[V:1] (11:8:22b=ae'=ef_gcdf_edcB=Ac=EF_GCFED | 
[V:2] (11:8:22B=Ae=EF_GCDF_E[K:clef=bass]DCB,=A,C=E,F,_G,C,F,E,D, | 
[V:1] C2B,2 .[F2D2B,2G,2F,2] z2 dGA=A cB_AG | 
[V:2] C,2B,,2 [B,,2B,,,2] z2 DG,A,=A, CB,_A,G, | 
[V:1] F=E z2 !wedge![E2D2B,2G,2] z2 aBag =edBG | 
[V:2] F,=E, z2 !wedge![B,,2B,,,2] z2[K:clef=treble] AB,AG =EDB,G,[K:clef=bass] | 
[V:1] =EF z2 !wedge![F2C2F,2] z2 c'f^fg (5:4:5ba=fdc | 
[V:2] =E,F, z2 !wedge![A,,2A,,,2] z2[K:clef=treble] cF^FG (5:4:5BA=FDC | 
[V:1] c=B z2 !wedge![A2=D2=B,2A,2] z2 (17:16:17a'/=d'/e'/=e'/g'/f'/d'/=b/g/a/f/=d/=B/G/A/F/=D/ | 
[V:2] C=B, z2[K:clef=bass] !wedge![F,,2F,,,2] z2[K:clef=treble] (17:16:17a/=d/e/=e/g/f/d/=B/G/A/F/=D/[K:clef=bass]=B,/G,/A,/F,/=D,/ | 
[V:1] =B,CFE .[c2A2E2C2] z2 (3[__e'2__e2][d'2d2][c'2c2] (3[c'2c2][c'2c2][c'2c2] | 
[V:2] =B,,C,F,E, .[E,2A,,2E,,2] z2 (3[__E2__E,2][D2D,2][C2C,2] (3[C2C,2][C2C,2][C2C,2] | 
[V:1] =B,CF=E !wedge![c2A2E2C2] z2 (3[__e'2__e2][d'2d2][c'2c2] [c'c][c'c][c'c][c'c] | 
[V:2] =B,,C,F,=E, !wedge![E,2C,2=E,,2] z2 (3[__E2__E,2][D2D,2][C2C,2] [CC,][CC,][CC,][CC,] | 
[V:1] =B,CGF [c2A2F2C2] z2 B,C_BA .[c2A2E2C2] z2 | 
[V:2] =B,,C,G,F, .[A,2C,2F,,2] z2 B,,C,_B,A, .[_G,2A,,2_G,,2] z2 | 
[V:1] .[c2A2E2C2]!accent![c'2c2] .[=e2d2B2=E2]!accent![d'2d2] .[f2d2A2F2]!accent![a'2a2] .[g2f2d2G2]!accent![g'2g2] | 
[V:2] .[_G,2A,,2_G,,2]!accent![C2C,2] .[=G,2=G,,2]!accent![D2D,2] .[A,2D,2A,,2]!accent![A2A,2] .[B,2D,2B,,2]!accent![G2G,2] | 
[V:1] .[_c2_C2] z2 !accent![f''2-f'2] f''/e''/d''/a'/f'/e'/d'/a/f/e/d/A/F/E/D/A,/F,/E,/D,/A,,/ | 
[V:2] .[_C,2_C,,2] z2[K:clef=treble]!accent!!arpeggio![d4F4D4_C4][K:clef=bass]z8 | 
[V:1] !trill!F,,8(3.=E,,.F,,.D, (3.C,.G,,._C, (3._G,,.B,,.F,, (3.=A,,.F,,._A,, | 
[V:2] !trill!F,,,8(3.=E,,,.F,,,.D,, (3.C,,.G,,,._C,, (3._G,,,.B,,,.F,,, (3.=A,,,.F,,,._A,,, | 
[V:1] .=C,,4z4z8 | 
[V:2] .=C,,,4z4z8 | 
[V:1] z8[C8G,8C,8] | 
[V:2] z8[G,,8C,,8] | 
[V:1] !fermata![C16A,16F,16C,16] |]  
[V:2] [F,,16F,,,16] |]
